X: 1
T:Snowy Monday
M:6/8
L:1/8
%Q:90
C:Willie Taylor
S:Willie Taylor
R:jig
A:Northumbria
N:The dotted notation of this tune can in no way convey the rhythm
N:that N:Willy used to play it in
Z:Johnny Adams - Village Music Project
K:D
A \
|: F>GA D2F  | A>dd f>dd | G>AB A>dd |  A>gf e2A \
|  F>GA D2F  | A>dd f>dd | G>AB Aae  |1 f>dd d2A :|2 f>dd d2f/g/ :|
|: a>fd f>ed | B>GB d>cB | A>BA d>ef |  Aaf  e2f/g/ \
|  a>fd f>ed | B>GB d>cB | A>BA Aae  |  fdd  d2f/g/ |
|  a>fd f>ed | B>GB d>cB | A>BA A>dd |  Agf  e2A \
|  F>GA D2F  | A>dd f>dd | G>AB Aae  |  f>dd d2 |]
